X:3940
L:1/8
M:2/2
K:F
 cAFA cfcA | dfcA G/G/G G2 | cAFA cbag | f<dc<A F/F/F F2 :| fgag fdcf | dfca g/g/g g2 | fgag fdcf | 
 d<fc>A F/F/F F2 | fgag fdcf | dfca g/g/g g2 | fgaf bgec | d<f c>A F/F/F F2 ||

